storage/app/icons/phosphoricons/bold/corners-in-bold.svg

<svg xmlns="http://www.w3.org/2000/svg" fill="currentColor" viewBox="0 0 256 256"><path d="M148 96V48a12 12 0 0 1 24 0v36h36a12 12 0 0 1 0 24h-48a12 12 0 0 1-12-12m-52 52H48a12 12 0 0 0 0 24h36v36a12 12 0 0 0 24 0v-48a12 12 0 0 0-12-12m112 0h-48a12 12 0 0 0-12 12v48a12 12 0 0 0 24 0v-36h36a12 12 0 0 0 0-24M96 36a12 12 0 0 0-12 12v36H48a12 12 0 0 0 0 24h48a12 12 0 0 0 12-12V48a12 12 0 0 0-12-12"/></svg>

<svg xmlns="http://www.w3.org/2000/svg" viewBox="0 0 256 256" fill="currentColor"><path d="M148,96V48a12,12,0,0,1,24,0V84h36a12,12,0,0,1,0,24H160A12,12,0,0,1,148,96ZM96,148H48a12,12,0,0,0,0,24H84v36a12,12,0,0,0,24,0V160A12,12,0,0,0,96,148Zm112,0H160a12,12,0,0,0-12,12v48a12,12,0,0,0,24,0V172h36a12,12,0,0,0,0-24ZM96,36A12,12,0,0,0,84,48V84H48a12,12,0,0,0,0,24H96a12,12,0,0,0,12-12V48A12,12,0,0,0,96,36Z"/></svg>
